X: 43
T:Jig of Slurs
R:jig
C:G. S. MacLellan 
M:6/8
K:D
A| "D"A2d dcd| "G"Bdd "D"Add| "G"Bdd "D"Add| "Em"Bee "A7"edB|
   "D"A2d dcd| "G"Bdd "D"Add| "G"Bdd "A7"cde| "D"fdd d2:|
|:B| "D"A2f fef| aff fed| "Em"B2e ede| "G"fed "A7"edB|
   "D"A2f fef| aff fed| "G"Bdd "A7"cde| "D"fdd d2 :| 
K:Em
|:B| "G"G2g gfg| "Em"age "G/D"gdB| "G"G2g gfg| "D7"age g2 B|
   "G"G2g gfg| "Em"age "G"ged| "Bm"Bee efg| fed "Em"e2:|
|:G| "G"G2B Bdd| dee "Em"edB| "G"G2B Bdd| dee "Em"efg|
"G"G2B Bdd| dee edB| "Em"Bee "C"efg| "D"fed "Em"e2 :|
